src/categories-icons-sprite/categories/svg-cat-accessories-woman-bags.svg

<svg width="35" height="30" viewBox="0 0 35 30" fill="none" xmlns="http://www.w3.org/2000/svg">
<path class="p-FF637B" d="M34.1054 19.5202C34.0255 21.0002 33.6455 22.4201 32.9854 23.7201L31.4654 23.6601L31.9055 25.4401C30.9255 26.7401 29.5788 27.84 28.0989 28.6001L26.2588 28.54L26.0789 29.4601C24.9789 29.8201 23.8189 30.0002 22.6189 30.0002H19.8989L17.9789 29.3802L17.0589 29.7001L16.219 30.0002H11.4989C10.859 30.0002 10.239 29.9401 9.61904 29.8401L9.59904 28.8L7.31904 29.2201C5.73911 28.6001 4.25238 27.66 3.09232 26.4601L3.23232 24.8401L1.83232 24.9002C0.752395 23.3201 0.11233 21.4801 0.0123968 19.5202C-0.0476697 18.2802 0.112396 17.0401 0.452329 15.8601L2.19232 15.8801L1.25239 13.9002C1.51239 13.3802 1.83232 12.8802 2.19232 12.4002L7.85904 9.6001H26.2589L31.9256 12.4002C32.5655 13.2602 33.0655 14.1801 33.4256 15.1801L32.6656 17.5001L34.0056 17.3601C34.1054 18.0601 34.1455 18.8001 34.1054 19.5202Z" fill="#B9DFFC"/>
<path class="p-E63950" d="M34.1051 19.5201C34.0252 21.0001 33.6452 22.4201 32.9852 23.7201L31.4652 23.66L31.9052 25.44C30.9252 26.7401 29.5786 27.84 28.0986 28.6L26.2585 28.54L26.0786 29.46C24.9786 29.82 23.8186 30.0001 22.6186 30.0001H19.8986L17.9787 29.3801L17.0586 29.7V9.6001H26.2585L31.9252 12.4002C32.5651 13.2602 33.0651 14.1801 33.4252 15.1801L32.6652 17.5001L34.0051 17.3601C34.1051 18.0601 34.1452 18.8001 34.1051 19.5201Z" fill="#A1D1FD"/>
<path class="p-E63950" d="M34.0053 17.3599C33.8853 16.5999 33.7053 15.8799 33.4254 15.1798L28.3987 19.6598L24.6587 16.2998L28.2187 13.0999L26.8787 11.6199L23.1788 14.9599L18.0588 10.3599L17.0588 11.2599L12.9388 14.9598L8.47886 10.9398L7.1388 12.4198L11.4589 16.2998L7.71886 19.6598L1.25221 13.8999C0.91228 14.5199 0.652215 15.1799 0.452148 15.8598L6.23887 20.9998L1.83214 24.8998C2.19214 25.4598 2.61214 25.9798 3.09214 26.4598L7.71886 22.3398L11.3389 25.5998L7.31886 29.2197C8.05886 29.4997 8.81886 29.7197 9.61892 29.8397L12.8389 26.9398L16.2189 29.9998H19.8988L23.2788 26.9398L26.0789 29.4597C26.7788 29.2397 27.4589 28.9597 28.0989 28.5997L24.7788 25.5998L28.3988 22.3398L31.9055 25.4398C32.3255 24.8998 32.6855 24.3198 32.9855 23.7198L29.9454 20.9998L34.0053 17.3599ZM17.0587 13.9399L18.0587 13.0399L21.6787 16.2998L18.0587 19.5598L17.0587 18.6598L14.4387 16.2998L17.0587 13.9399ZM9.21872 20.9999L12.9387 17.6399L16.5587 20.8999L12.8387 24.2599L9.21872 20.9999ZM18.0587 28.9598L17.0587 28.0598L14.3387 25.5999L17.0587 23.14L18.0587 22.24L21.7787 25.6L18.0587 28.9598ZM23.2786 24.2599L19.5586 20.8999L23.1786 17.6399L26.8986 20.9999L23.2786 24.2599Z" fill="#58ADE5"/>
<path class="p-AE2538" d="M34.0051 17.3599C33.8851 16.5999 33.7051 15.8799 33.4252 15.1798L28.3985 19.6598L24.6585 16.2998L28.2186 13.0999L26.8785 11.6199L23.1786 14.9598L18.0586 10.3599L17.0586 11.2599V13.9398L18.0586 13.0398L21.6786 16.2998L18.0586 19.5598L17.0586 18.6598V23.1399L18.0586 22.2399L21.7786 25.5999L18.0586 28.9599L17.0586 28.0599V29.9999H19.8986L23.2786 26.9399L26.0786 29.4599C26.7786 29.2399 27.4586 28.9599 28.0986 28.5999L24.7786 25.5999L28.3986 22.3399L31.9053 25.4399C32.3252 24.9 32.6853 24.3199 32.9852 23.7199L29.9452 20.9999L34.0051 17.3599ZM23.2784 24.2599L19.5585 20.8999L23.1784 17.6399L26.8984 20.9999L23.2784 24.2599Z" fill="#4D98CB"/>
<path class="p-FFDA2D" d="M31.826 9.33992C29.466 7.17986 26.2994 6 23.0594 6H11.0594C7.81944 6 4.65285 7.17993 2.29285 9.33992C1.65285 9.91986 1.31272 10.76 1.35279 11.6199C1.39285 12.5398 1.83279 13.3799 2.55285 13.9198C3.69271 14.78 5.33951 14.6998 6.45944 13.7199C7.71944 12.6199 7.54391 10.1844 9.24391 10.1844L17.0594 11.0922L24.8749 10.1844C26.5748 10.1844 26.3993 12.6199 27.6594 13.7199C28.2594 14.26 29.066 14.52 29.7861 14.52C30.4061 14.52 31.0261 14.3199 31.566 13.9199C32.2861 13.38 32.7261 12.5399 32.7661 11.62C32.806 10.76 32.466 9.91992 31.826 9.33992Z" fill="#58ADE5"/>
<path class="p-FDBF00" d="M32.7653 11.62C32.7252 12.54 32.2853 13.38 31.5652 13.92C31.0253 14.32 30.4053 14.52 29.7853 14.52C29.0652 14.52 28.2586 14.26 27.6586 13.72C26.3986 12.62 26.5741 10.1845 24.8741 10.1845L17.0586 11.0922V6H23.0586C26.2986 6 29.4652 7.17993 31.8252 9.33992C32.4652 9.91999 32.8053 10.7601 32.7653 11.62Z" fill="#4D98CB"/>
<path class="p-FDBF00" d="M9.05956 7.99999C7.4053 7.99999 6.05957 6.65426 6.05957 4.99999C6.05957 3.34573 7.4053 2 9.05956 2C10.7138 2 12.0596 3.34573 12.0596 4.99999C12.0596 6.65426 10.7138 7.99999 9.05956 7.99999ZM9.05956 4C8.50783 4 8.05957 4.44826 8.05957 4.99999C8.05957 5.55173 8.50783 5.99999 9.05956 5.99999C9.6113 5.99999 10.0596 5.55173 10.0596 4.99999C10.0596 4.44826 9.6113 4 9.05956 4Z" fill="#AFD9F6"/>
<path class="p-FF9100" d="M25.0586 7.99999C23.4043 7.99999 22.0586 6.65426 22.0586 4.99999C22.0586 3.34573 23.4043 2 25.0586 2C26.7129 2 28.0586 3.34573 28.0586 4.99999C28.0586 6.65426 26.7129 7.99999 25.0586 7.99999ZM25.0586 4C24.5069 4 24.0586 4.44826 24.0586 4.99999C24.0586 5.55173 24.5069 5.99999 25.0586 5.99999C25.6103 5.99999 26.0586 5.55173 26.0586 4.99999C26.0586 4.44826 25.6103 4 25.0586 4Z" fill="#A1D1FD"/>
<path class="p-FDBF00" d="M20.0586 0C18.8586 0 17.7986 0.539932 17.0586 1.38C16.3186 0.539932 15.2585 0 14.0586 0C11.8587 0 10.0586 1.79993 10.0586 3.99999C10.0586 6.19991 11.8587 7.99997 14.0586 7.99997C15.2585 7.99997 16.3186 7.45991 17.0586 6.61998C17.7986 7.45991 18.8586 7.99997 20.0586 7.99997C22.2585 7.99997 24.0585 6.19991 24.0585 3.99999C24.0585 1.79993 22.2585 0 20.0586 0ZM14.0586 5.99998C12.9586 5.99998 12.0586 5.09998 12.0586 3.99999C12.0586 2.89999 12.9586 1.99999 14.0586 1.99999C15.1586 1.99999 16.0586 2.89999 16.0586 3.99999C16.0586 5.09998 15.1585 5.99998 14.0586 5.99998ZM20.0586 5.99998C18.9586 5.99998 18.0586 5.09998 18.0586 3.99999C18.0586 2.89999 18.9586 1.99999 20.0586 1.99999C21.1586 1.99999 22.0586 2.89999 22.0586 3.99999C22.0586 5.09998 21.1585 5.99998 20.0586 5.99998Z" fill="#B9DFFC"/>
<path class="p-FF9100" d="M20.0586 0C18.8587 0 17.7986 0.539932 17.0586 1.38V6.61998C17.7986 7.45991 18.8587 7.99997 20.0586 7.99997C22.2585 7.99997 24.0586 6.19991 24.0586 3.99999C24.0586 1.79993 22.2585 0 20.0586 0ZM20.0586 5.99998C18.9586 5.99998 18.0586 5.09998 18.0586 3.99999C18.0586 2.89999 18.9586 1.99999 20.0586 1.99999C21.1586 1.99999 22.0586 2.89999 22.0586 3.99999C22.0586 5.09998 21.1585 5.99998 20.0586 5.99998Z" fill="#A1D1FD"/>
</svg>

<svg width="35" height="30" fill="none" xmlns="http://www.w3.org/2000/svg"><path class="p-FF637B" d="M34.105 19.52c-.08 1.48-.46 2.9-1.12 4.2l-1.52-.06.44 1.78c-.98 1.3-2.326 2.4-3.806 3.16l-1.84-.06-.18.92c-1.1.36-2.26.54-3.46.54h-2.72l-1.92-.62-.92.32-.84.3h-4.72c-.64 0-1.26-.06-1.88-.16l-.02-1.04-2.28.42c-1.58-.62-3.067-1.56-4.227-2.76l.14-1.62-1.4.06a10.437 10.437 0 01-1.82-5.38c-.06-1.24.1-2.48.44-3.66l1.74.02-.94-1.98c.26-.52.58-1.02.94-1.5L7.86 9.6h18.4l5.667 2.8c.64.86 1.14 1.78 1.5 2.78l-.76 2.32 1.34-.14c.1.7.14 1.44.1 2.16z" fill="#B9DFFC"/><path class="p-E63950" d="M34.105 19.52c-.08 1.48-.46 2.9-1.12 4.2l-1.52-.06.44 1.78c-.98 1.3-2.326 2.4-3.806 3.16l-1.84-.06-.18.92c-1.1.36-2.26.54-3.46.54h-2.72l-1.92-.62-.92.32V9.6h9.2l5.666 2.8c.64.86 1.14 1.78 1.5 2.78l-.76 2.32 1.34-.14c.1.7.14 1.44.1 2.16z" fill="#A1D1FD"/><path class="p-E63950" d="M34.005 17.36c-.12-.76-.3-1.48-.58-2.18L28.4 19.66l-3.74-3.36 3.56-3.2-1.34-1.48-3.7 3.34-5.12-4.6-1 .9-4.12 3.7-4.46-4.02-1.34 1.48 4.32 3.88-3.74 3.36-6.467-5.76c-.34.62-.6 1.28-.8 1.96L6.24 21l-4.407 3.9c.36.56.78 1.08 1.26 1.56l4.627-4.12 3.62 3.26-4.02 3.62c.74.28 1.5.5 2.3.62l3.22-2.9 3.38 3.06h3.68l3.38-3.06 2.8 2.52c.7-.22 1.38-.5 2.02-.86l-3.32-3 3.62-3.26 3.506 3.1c.42-.54.78-1.12 1.08-1.72L29.946 21l4.06-3.64zM17.06 13.94l1-.9 3.62 3.26-3.62 3.26-1-.9-2.62-2.36 2.62-2.36zM9.219 21l3.72-3.36 3.62 3.26-3.72 3.36L9.219 21zm8.84 7.96l-1-.9-2.72-2.46 2.72-2.46 1-.9 3.72 3.36-3.72 3.36zm5.22-4.7l-3.72-3.36 3.62-3.26 3.72 3.36-3.62 3.26z" fill="#58ADE5"/><path class="p-AE2538" d="M34.005 17.36c-.12-.76-.3-1.48-.58-2.18L28.4 19.66l-3.74-3.36 3.56-3.2-1.34-1.48-3.7 3.34-5.12-4.6-1 .9v2.68l1-.9 3.62 3.26-3.62 3.26-1-.9v4.48l1-.9 3.72 3.36-3.72 3.36-1-.9V30h2.84l3.38-3.06 2.8 2.52c.7-.22 1.38-.5 2.02-.86l-3.32-3 3.62-3.26 3.506 3.1c.42-.54.78-1.12 1.08-1.72L29.945 21l4.06-3.64zm-10.727 6.9l-3.72-3.36 3.62-3.26 3.72 3.36-3.62 3.26z" fill="#4D98CB"/><path class="p-FFDA2D" d="M31.826 9.34C29.466 7.18 26.299 6 23.059 6h-12C7.82 6 4.653 7.18 2.293 9.34c-.64.58-.98 1.42-.94 2.28.04.92.48 1.76 1.2 2.3 1.14.86 2.787.78 3.906-.2 1.26-1.1 1.085-3.536 2.785-3.536l7.815.908 7.816-.908c1.7 0 1.524 2.436 2.784 3.536.6.54 1.407.8 2.127.8.62 0 1.24-.2 1.78-.6.72-.54 1.16-1.38 1.2-2.3.04-.86-.3-1.7-.94-2.28z" fill="#58ADE5"/><path class="p-FDBF00" d="M32.765 11.62c-.04.92-.48 1.76-1.2 2.3-.54.4-1.16.6-1.78.6-.72 0-1.526-.26-2.126-.8-1.26-1.1-1.085-3.536-2.785-3.536l-7.815.908V6h6c3.24 0 6.406 1.18 8.766 3.34.64.58.98 1.42.94 2.28z" fill="#4D98CB"/><path class="p-FDBF00" d="M9.06 8c-1.655 0-3-1.346-3-3s1.345-3 3-3c1.654 0 3 1.346 3 3s-1.346 3-3 3zm0-4a1 1 0 10.001 2.001A1 1 0 009.06 4z" fill="#AFD9F6"/><path class="p-FF9100" d="M25.059 8c-1.655 0-3-1.346-3-3s1.345-3 3-3c1.654 0 3 1.346 3 3s-1.346 3-3 3zm0-4a1 1 0 10.001 2.001A1 1 0 0025.059 4z" fill="#A1D1FD"/><path class="p-FDBF00" d="M20.059 0c-1.2 0-2.26.54-3 1.38-.74-.84-1.8-1.38-3-1.38-2.2 0-4 1.8-4 4s1.8 4 4 4c1.2 0 2.26-.54 3-1.38.74.84 1.8 1.38 3 1.38 2.2 0 4-1.8 4-4s-1.8-4-4-4zm-6 6c-1.1 0-2-.9-2-2s.9-2 2-2 2 .9 2 2-.9 2-2 2zm6 0c-1.1 0-2-.9-2-2s.9-2 2-2 2 .9 2 2-.9 2-2 2z" fill="#B9DFFC"/><path class="p-FF9100" d="M20.059 0c-1.2 0-2.26.54-3 1.38v5.24c.74.84 1.8 1.38 3 1.38 2.2 0 4-1.8 4-4s-1.8-4-4-4zm0 6c-1.1 0-2-.9-2-2s.9-2 2-2 2 .9 2 2-.9 2-2 2z" fill="#A1D1FD"/></svg>
